X: 5
T: The Fun at Donnybrook
M: 6/8
L: 1/8
B: "O'Neill's 5"
N: "Cheerfully" "collected by Hartnett"
Z: "Transcribed by Norbert Paap, norbertp@bdu.uva.nl"
K:Gm
B/2-A/2 | G>FD C>D^F | G3z2B/2-c/2 | B>cd cAG | F3z2B/2-c/2 |
d>ed c2 d/2-c/2 | B>AG A2 ~B/2-A/2 | G>FD CD^F | G2 G B2 B/2-c/2 \
ded cBA | G3-G2 |:|


